cefTLapp/res_pr2017/img/EU2017.svg

<?xml version="1.0" encoding="UTF-8" standalone="no"?>
<!-- Generator: Adobe Illustrator 21.1.0, SVG Export Plug-In . SVG Version: 6.00 Build 0)  -->

<svg
   xmlns:dc="http://purl.org/dc/elements/1.1/"
   xmlns:cc="http://creativecommons.org/ns#"
   xmlns:rdf="http://www.w3.org/1999/02/22-rdf-syntax-ns#"
   xmlns:svg="http://www.w3.org/2000/svg"
   xmlns="http://www.w3.org/2000/svg"
   xmlns:sodipodi="http://sodipodi.sourceforge.net/DTD/sodipodi-0.dtd"
   xmlns:inkscape="http://www.inkscape.org/namespaces/inkscape"
   version="1.1"
   id="Layer_1"
   x="0px"
   y="0px"
   viewBox="0 0 169.5 215.5"
   xml:space="preserve"
   inkscape:version="0.91 r13725"
   sodipodi:docname="EU2017_logo_rounded.svg"
   width="169.5"
   height="215.5"><metadata
     id="metadata16"><rdf:RDF><cc:Work
         rdf:about=""><dc:format>image/svg+xml</dc:format><dc:type
           rdf:resource="http://purl.org/dc/dcmitype/StillImage" /><dc:title></dc:title></cc:Work></rdf:RDF></metadata><defs
     id="defs14" /><sodipodi:namedview
     pagecolor="#ffffff"
     bordercolor="#666666"
     borderopacity="1"
     objecttolerance="10"
     gridtolerance="10"
     guidetolerance="10"
     inkscape:pageopacity="0"
     inkscape:pageshadow="2"
     inkscape:window-width="1920"
     inkscape:window-height="1137"
     id="namedview12"
     showgrid="false"
     inkscape:zoom="1.1238095"
     inkscape:cx="-37.012712"
     inkscape:cy="105"
     inkscape:window-x="-8"
     inkscape:window-y="-8"
     inkscape:window-maximized="1"
     inkscape:current-layer="Layer_1" /><style
     type="text/css"
     id="style3">
	.st0{fill:#0092FF;}
	.st1{fill:#1791FF;}
</style><g
     id="Public"
     transform="translate(4.75,2.75)"><g
       id="Index"
       transform="translate(-130,-30)"><g
         id="Header"
         transform="translate(130,30)"><g
           id="Logo"><path
             id="Fill-1"
             class="st1"
             d="m 117.5,172.4 c 0,-20.7 -16.8,-37.6 -37.5,-37.6 -20.7,0 -37.5,16.9 -37.5,37.6 0,20.7 16.8,37.6 37.5,37.6 20.7,0 37.5,-16.9 37.5,-37.6"
             inkscape:connector-curvature="0"
             style="fill:#1791ff" /><path
             id="EU2017.ee"
             class="st1"
             d="m 16.5,112.4 0,5.8 -16.5,0 0,-26.4 16.3,0 0,5.8 -10.3,0 0,4.4 9.4,0 0,5.7 -9.4,0 0,4.7 10.5,0 z m 2.8,-2.7 0,-17.9 6,0 0,17.3 c 0,2 0.9,3.7 4.1,3.7 3.2,0 4.1,-1.7 4.1,-3.7 l 0,-17.3 6,0 0,17.8 c 0,5.6 -4.4,9 -10.1,9 -5.7,0 -10.1,-3.3 -10.1,-8.9 z m 23.1,4.1 8.8,-9.2 c 1.5,-1.6 2.7,-3.1 2.7,-4.7 0,-1.7 -1.1,-2.8 -2.8,-2.8 -1.8,0 -3.2,1.2 -3.9,2.9 l -5.1,-3 c 1.7,-3.9 5.2,-5.8 8.9,-5.8 4.7,0 8.9,3.1 8.9,8.4 0,3.2 -1.7,5.9 -4.1,8.3 l -4.4,4.4 8.8,0 0,5.8 -17.8,0 0,-4.3 z M 62,105 c 0,-8.1 3.9,-13.7 10.7,-13.7 6.8,0 10.7,5.6 10.7,13.7 0,8.1 -3.9,13.7 -10.7,13.7 C 65.9,118.7 62,113.1 62,105 Z m 15.4,0 c 0,-5.1 -1.5,-7.8 -4.7,-7.8 -3.2,0 -4.7,2.7 -4.7,7.8 0,5.1 1.5,7.8 4.7,7.8 3.2,0 4.7,-2.7 4.7,-7.8 z m 37.4,-13.2 0,5 -8.6,21.3 -6.4,0 8.3,-20.6 -9.7,0 0,-5.8 16.4,0 z m -2.6,23.3 c 0,-2 1.6,-3.6 3.6,-3.6 2,0 3.6,1.6 3.6,3.6 0,2 -1.6,3.6 -3.6,3.6 -1.9,0 -3.6,-1.6 -3.6,-3.6 z m 28.1,-2.7 0,5.8 -16.5,0 0,-26.4 16.3,0 0,5.8 -10.3,0 0,4.4 9.4,0 0,5.7 -9.4,0 0,4.7 10.5,0 z m 19.7,0 0,5.8 -16.5,0 0,-26.4 16.3,0 0,5.8 -10.3,0 0,4.4 9.4,0 0,5.7 -9.4,0 0,4.7 10.5,0 z m -69.8,-20.6 5.3,0 0,26.4 -6,0 0,-20 -3.9,1.1 -1.6,-5.2 6.2,-2.3 z"
             inkscape:connector-curvature="0"
             style="fill:#1791ff" /><path
             id="Fill-3"
             class="st1"
             d="m 42.5,37.6 c 0,20.7 16.8,37.6 37.5,37.6 20.7,0 37.5,-16.9 37.5,-37.6 C 117.5,16.9 100.7,0 80,0 59.3,0 42.5,16.9 42.5,37.6"
             inkscape:connector-curvature="0"
             style="fill:#1791ff" /></g></g></g></g></svg>

<?xml version="1.0" encoding="utf-8"?>
<!-- Generator: Adobe Illustrator 21.1.0, SVG Export Plug-In . SVG Version: 6.00 Build 0)  -->
<svg version="1.1" id="Layer_1" xmlns="http://www.w3.org/2000/svg" xmlns:xlink="http://www.w3.org/1999/xlink" x="0px" y="0px"
	 viewBox="0 0 160 210" style="enable-background:new 0 0 160 210;" xml:space="preserve">
<style type="text/css">
	.st0{fill:#0092FF;}
	.st1{fill:#1791FF;}
</style>
<g id="Public">
	<g id="Index" transform="translate(-130.000000, -30.000000)">
		<g id="Header" transform="translate(130.000000, 30.000000)">
			<g id="Logo">
				<path id="Fill-1" class="st1" d="M117.5,172.4c0-20.7-16.8-37.6-37.5-37.6c-20.7,0-37.5,16.9-37.5,37.6S59.3,210,80,210
					C100.7,210,117.5,193.1,117.5,172.4"/>
				<path id="EU2017.ee" class="st1" d="M16.5,112.4v5.8H0V91.8h16.3v5.8H6v4.4h9.4v5.7H6v4.7H16.5z M19.3,109.7V91.8h6v17.3
					c0,2,0.9,3.7,4.1,3.7c3.2,0,4.1-1.7,4.1-3.7V91.8h6v17.8c0,5.6-4.4,9-10.1,9S19.3,115.3,19.3,109.7z M42.4,113.8l8.8-9.2
					c1.5-1.6,2.7-3.1,2.7-4.7c0-1.7-1.1-2.8-2.8-2.8c-1.8,0-3.2,1.2-3.9,2.9l-5.1-3c1.7-3.9,5.2-5.8,8.9-5.8c4.7,0,8.9,3.1,8.9,8.4
					c0,3.2-1.7,5.9-4.1,8.3l-4.4,4.4h8.8v5.8H42.4V113.8z M62,105c0-8.1,3.9-13.7,10.7-13.7c6.8,0,10.7,5.6,10.7,13.7
					c0,8.1-3.9,13.7-10.7,13.7C65.9,118.7,62,113.1,62,105z M77.4,105c0-5.1-1.5-7.8-4.7-7.8c-3.2,0-4.7,2.7-4.7,7.8
					c0,5.1,1.5,7.8,4.7,7.8C75.9,112.8,77.4,110.1,77.4,105z M114.8,91.8v5l-8.6,21.3h-6.4l8.3-20.6h-9.7v-5.8H114.8z M112.2,115.1
					c0-2,1.6-3.6,3.6-3.6c2,0,3.6,1.6,3.6,3.6c0,2-1.6,3.6-3.6,3.6C113.9,118.7,112.2,117.1,112.2,115.1z M140.3,112.4v5.8h-16.5
					V91.8h16.3v5.8h-10.3v4.4h9.4v5.7h-9.4v4.7H140.3z M160,112.4v5.8h-16.5V91.8h16.3v5.8h-10.3v4.4h9.4v5.7h-9.4v4.7H160z
					 M90.2,91.8h5.3v26.4h-6v-20l-3.9,1.1L84,94.1L90.2,91.8z"/>
				<path id="Fill-3" class="st1" d="M42.5,37.6c0,20.7,16.8,37.6,37.5,37.6c20.7,0,37.5-16.9,37.5-37.6C117.5,16.9,100.7,0,80,0
					C59.3,0,42.5,16.9,42.5,37.6"/>
			</g>
		</g>
	</g>
</g>
</svg>
